X:37
T: MEI SCHATZERL IS HUEBSCH ABER REICH IS ES NIT
N: F0107
O: Europa, Mitteleuropa, Deutschland
R: Liebes - Lied
M: 3/8
L: 1/16
K: E
GA | B2G2Gg | e4
Gc | cDDBBD | E2z2
DE | F2F2G^A | B2B2
cd | fedcB^A | B6 |
GABcB2 | BeGcB2 |
BAAGAc | B2BAG2 |
EFGABc | A2AGF2 |
EFGABc | A2AGF2- | F4
GA | B2G2Gg | e4
Gc | cDDBBD | E2z2

@@@ Tune index: 5468
